!!!COM: Haydn, Franz Joseph
!!!OPR: String Quartet in C Major
!!!ONM: Opus 33, No. 3
!!!OTL: Affettuoso 
!!!OMV: 4
!!!SCT: H III:39
!!!SCA: Thematisch-bibliographisches Werkevererzeichnis (A. van Hoboken)
!!!YOR: Richault Edition, volume 7
!!!EED: Frances Bennion
!!!ENC: Frances Bennion
!!!CDT: 1732/3/31/-1809/5/31/
!!!OCY: Österreich
!!!YEC: Copyright (c) 1994, 2000 Center for Computer Assisted Research in the Humanities
!!!YEM: Rights to all derivative editions reserved.
!!!YEM: Refer to licensing agreement for further details.
!!!YEN: United States of America
**kern	**kern	**kern	**kern	**kern
*k[]	*k[]	*k[]	*k[]	*k[]
*C:	*C:	*C:	*C:	*C:
*clefF	*clefF	*clefF	*clefC3	*clefF4
*M2/4	*M2/4	*M2/4	*M2/4	*M2/4
*tb16	*tb16	*tb16	*tb16	*tb16
=1	=1	=1	=1	=1
8gg	8e 8cc	2r	8G 8e	8c
8ee	8r	.	8r	8r
8gg	8e 8cc	.	8e 8G	8c
8ee	8r	.	8r	8r
=2	=2	=2	=2	=2
16gg	4e 4cc	2r	4G 4e	4c
16ff	.	.	.	.
16ee	.	.	.	.
16ff	.	.	.	.
8gg	4r	.	4r	4r
8ee	.	.	.	.
=3	=3	=3	=3	=3
16gg	8e 8cc	2r	8G 8e	8c
16ff	.	.	.	.
16ee	8cc 8e	.	8e 8G	8c
16ff	.	.	.	.
16gg	8e 8cc	.	8G 8e	8c
16ff	.	.	.	.
16ee	8cc 8e	.	8G 8e	8c
16ff	.	.	.	.
=4	=4	=4	=4	=4
16gg	4e 4cc	2r	4e 4G	4c
16ff	.	.	.	.
16ee	.	.	.	.
16ff	.	.	.	.
8gg	4r	.	4r	4r
8ee	.	.	.	.
=5	=5	=5	=5	=5
8aa	8cc#	2r	8e	8A
8aa	8cc#	.	8e	8A
8gg	8cc#	.	8e	8A
16ff	8cc#	.	8e	8A
16gg	.	.	.	.
=6	=6	=6	=6	=6
8ff	8dd	2r	8d	8d
8ff	8dd	.	8d	8d
8gg	8b	.	8d	8G
16ff	8b	.	8d	8G
16gg	.	.	.	.
=7	=7	=7	=7	=7
8ee	8cc	2r	8c	8c
8ee	8cc	.	8c	8c
8ff	8a	.	8F	8F
16ee	16g	.	8F	8F
16dd	16f	.	.	.
=8	=8	=8	=8	=8
4cc	4e	2r	4G	4G
8b	8d	.	4r	8GG
8r	8r	.	.	8r
=9	=9	=9	=9	=9
8gg	8dd	2r	8b	2r
8r	8b	.	8g	.
8gg	8dd	.	8b	.
8r	8b	.	8g	.
=10	=10	=10	=10	=10
4gg	16dd	2r	16b	2r
.	16cc	.	16a	.
.	16b	.	16g	.
.	16cc	.	16a	.
4r	8dd	.	8b	.
.	8b	.	8g	.
=11	=11	=11	=11	=11
8gg	8ee	2r	8cc	2r
8r	8cc	.	8g	.
8gg	8ee	.	8cc	.
8r	8cc	.	8g	.
=12	=12	=12	=12	=12
4gg	16ee	2r	16cc	2r
.	16dd	.	16b	.
.	16cc	.	16a	.
.	16dd	.	16b	.
4r	8ee	.	8cc	.
.	8cc	.	8g	.
=13	=13	=13	=13	=13
8gg	16ff	2r	16dd	2r
.	16gg	.	16ee	.
8gg	16ff	.	16dd	.
.	16gg	.	16ee	.
8gg	16ee	.	16cc	.
.	16ff	.	16dd	.
8gg	16ee	.	16cc	.
.	16ff	.	16dd	.
=14	=14	=14	=14	=14
4gg	16dd	2r	16b	2r
.	16cc	.	16a	.
.	16b	.	16g	.
.	16a	.	16f	.
4r	16g	.	16e	.
.	16f	.	16d	.
.	16e	.	16c	.
.	16d	.	16B	.
=15	=15	=15	=15	=15
8ccc	8e	2r	8c	8B-
8r	8r	.	8r	8G
8ccc	8ee 8cc	.	8g	8B-
8r	8r	.	8r	8G
=16	=16	=16	=16	=16
4ccc	4ee 4cc	2r	4g	16B-
.	.	.	.	16A
.	.	.	.	16G
.	.	.	.	16A
4r	4r	.	4r	8B-
.	.	.	.	8G
=17	=17	=17	=17	=17
8ccc	8ee 8cc	2r	8g	16B-
.	.	.	.	16A
8ccc	8cc 8ee	.	8g	16G
.	.	.	.	16A
8ccc	8ee 8cc	.	8g	16B-
.	.	.	.	16A
8ccc	8ee 8cc	.	8g	16G
.	.	.	.	16A
=18	=18	=18	=18	=18
4ccc	4cc 4ee	2r	4g	16B-
.	.	.	.	16A
.	.	.	.	16G
.	.	.	.	16A
4r	4r	.	4r	8B-
.	.	.	.	8G
=19	=19	=19	=19	=19
16aa	[2cc	2r	2c	8F
16bb	.	.	.	.
16ccc	.	.	.	8F
16aa	.	.	.	.
8gg	.	.	.	8E
8gg	.	.	.	8E
=20	=20	=20	=20	=20
16ff	8cc]	2r	8f	8D
16gg	.	.	.	.
16aa	8b	.	8f	8D
16ff	.	.	.	.
8ee	8cc	.	8g	8C
8ee	8cc	.	8g	8C
=21	=21	=21	=21	=21
16dd	8a	2r	8a	8F
16ee	.	.	.	.
16ff	8a	.	8a	8F
16dd	.	.	.	.
16b	16d	.	8f	8G
16cc	16e	.	.	.
16dd	16f	.	8f	8G
16b	16d	.	.	.
=22	=22	=22	=22	=22
4cc	4e	2r	4e	4C
4r	4r	.	4r	4r
=23	=23	=23	=23	=23
4.a	[2e	4.A	4c	4AA
.	.	.	4r	4r
8g#	.	8B	.	.
=24	=24	=24	=24	=24
8a	2e]	8c	2r	2r
8g#	.	8B	.	.
8a	.	8c	.	.
8b	.	8B	.	.
=25	=25	=25	=25	=25
16cc	2e	8A	4e 4c	4AA
16dd	.	.	.	.
16cc	.	8B	.	.
16b	.	.	.	.
8a	.	8c	4r	4r
8b	.	8B	.	.
=26	=26	=26	=26	=26
16cc	2e	8A	4e 4c	4AA
16dd	.	.	.	.
16cc	.	8B	.	.
16b	.	.	.	.
8a	.	8c	4r	4r
8cc	.	8r	.	.
=27	=27	=27	=27	=27
4.ee	2b	4.e	4e 4G	4EE
.	.	.	4r	4r
8dd#	.	8f#	.	.
=28	=28	=28	=28	=28
8ee	2b	8g	2r	2r
8dd#	.	8f#	.	.
8ee	.	8g	.	.
8ff#	.	8f#	.	.
=29	=29	=29	=29	=29
16gg	2b	8e	4G 4e	4E
16aa	.	.	.	.
16gg	.	8f#	.	.
16ff#	.	.	.	.
8ee	.	8g	4r	4r
8ff#	.	8f#	.	.
=30	=30	=30	=30	=30
16gg	4.b	8e	4G 4e	4E
16aa	.	.	.	.
16gg	.	8f#	.	.
16ff#	.	.	.	.
8ee	.	8g	4r	4r
8ee	8r	8r	.	.
=31	=31	=31	=31	=31
4.ff	[2cc	2r	4.f	8A
.	.	.	.	8A
.	.	.	.	8A
8ee	.	.	8g	8A
=32	=32	=32	=32	=32
8ff	4.cc]	2r	8f	8A
8ff	.	.	8f	8A
8aa	.	.	8A	8A
8ccc	8a	.	8A	8A
=33	=33	=33	=33	=33
[2ee	2g	2r	8B	8B
.	.	.	8B	8B
.	.	.	8B	8B
.	.	.	8B	8B
=34	=34	=34	=34	=34
8ee]	8f#	2r	8B	8BB
16dd#	16f#	.	8B	8BB
16ee	16g	.	.	.
8ff#	8a	.	8B	8BB
8dd#	8f#	.	8B	8BB
=35	=35	=35	=35	=35
4ee	4e	2r	4e	4E
[4ee	[4e	.	4r	4r
=36	=36	=36	=36	=36
8ee]	8e]	2r	2r	2r
8dd	8d	.	.	.
8cc	8c	.	.	.
8b	8B	.	.	.
=37	=37	=37	=37	=37
8ee	8e	2r	2r	2r
8gg	8g	.	.	.
8ff	8f	.	.	.
8dd	8b	.	.	.
=38	=38	=38	=38	=38
4cc	[2cc	2r	8g	8e
.	.	.	8e	8c
4r	.	.	8g	8e
.	.	.	8e	8c
=39	=39	=39	=39	=39
2r	8cc]	2r	16g	16e
.	.	.	16f	16d
.	8cc	.	16e	16c
.	.	.	16f	16d
.	8cc	.	8g	8e
.	8cc	.	8e	8c
=40	=40	=40	=40	=40
8aa	[2cc	2r	[2f	[2d
8ff	.	.	.	.
8aa	.	.	.	.
8ff	.	.	.	.
=41	=41	=41	=41	=41
16aa	8cc]	2r	8f]	8d]
16gg	.	.	.	.
16ff	8cc	.	8f	8d
16gg	.	.	.	.
8aa	8cc	.	8f	8d
8ff	8cc	.	8f	8d
=42	=42	=42	=42	=42
[2ddd	8b	2r	2f 2G	8d
.	8g	.	.	8f
.	8b	.	.	8d
.	8g	.	.	8f
=43	=43	=43	=43	=43
8ddd]	16b	2r	2f 2G	16d
.	16a	.	.	16e
8ddd	16g	.	.	16f
.	16a	.	.	16e
8ddd	8b	.	.	8d
8ddd	8g	.	.	8f
=44	=44	=44	=44	=44
[2ddd	8gg	2r	8e	4e
.	8ee	.	8c	.
.	8gg	.	8e	4r
.	8ee	.	8c	.
=45	=45	=45	=45	=45
8ddd]	16gg	2r	16e	2r
.	16ff	.	16d	.
8ccc	16ee	.	16c	.
.	16ff	.	16d	.
8ccc	8gg	.	8e	.
8ccc	8ee	.	8c	.
=46	=46	=46	=46	=46
8ccc	[2ff#	2r	8f#	8A
8aa	.	.	8a	8c
8ccc	.	.	8f#	8A
8aa	.	.	8a	8c
=47	=47	=47	=47	=47
16ccc	8ff#]	2r	16f#	16A
16bb	.	.	16g	16B
16aa	8ff#	.	16a	16c
16bb	.	.	16g	16B
8ccc	8ff#	.	8f#	8A
8aa	8ff#	.	8a	8c
=48	=48	=48	=48	=48
8bb	[2gg	2r	8b	8G
8gg	.	.	8dd	8B
8bb	.	.	8b	8G
8gg	.	.	8dd	8B
=49	=49	=49	=49	=49
16bb	8gg]	2r	16b	16G
16aa	.	.	16cc	16A
16gg	8gg	.	16dd	16B
16aa	.	.	16cc	16A
8bb	8gg	.	8b	8G
8gg	8gg	.	8dd	8B
=50	=50	=50	=50	=50
[2ccc#	8gg	2r	[2g	8E
.	8ee	.	.	8G
.	8gg	.	.	8E
.	8ee	.	.	8G
=51	=51	=51	=51	=51
8ccc#]	16gg	2r	8g]	16E
.	16ff#	.	.	16F#
8ccc#	16ee	.	8g	16G
.	16ff#	.	.	16F#
8ccc#	8gg	.	8g	8E
8ccc#	8ee	.	8g	8G
=52	=52	=52	=52	=52
8ddd	4ff#	2r	8a	4D
8dd	.	.	8r	.
16ccc	8r	.	16a	4r
16bb	.	.	16g	.
16aa	8d	.	16f#	.
16ccc	.	.	16a	.
=53	=53	=53	=53	=53
8bb	8G	2r	8g	4r
8gg	8g	.	8b	.
16aa	4r	.	4r	16c
16gg	.	.	.	16B
16ff#	.	.	.	16A
16aa	.	.	.	16c
=54	=54	=54	=54	=54
8gg	4r	2r	4.r	8B
8bb	.	.	.	8G
16aa	16ff#	.	.	4r
16bb	16gg	.	.	.
16ccc	16aa	.	8d	.
16aa	16ff#	.	.	.
=55	=55	=55	=55	=55
8bb	8gg	2r	8B	4r
8ddd	8bb	.	8G	.
16ff#	8r	.	4r	16A
16gg	.	.	.	16B
16aa	8d	.	.	16c
16ff#	.	.	.	16A
=56	=56	=56	=56	=56
16gg	16b	2r	2r	4G
16aa	16cc	.	.	.
16bb	16dd	.	.	.
16gg	16b	.	.	.
16ff#	16a	.	.	4r
16gg	16b	.	.	.
16aa	16cc	.	.	.
16ff#	16a	.	.	.
=57	=57	=57	=57	=57
16ee	16g	2r	2r	2r
16ff#	16a	.	.	.
16gg	16b	.	.	.
16ee	16g	.	.	.
16dd	16f#	.	.	.
16ee	16g	.	.	.
16ff#	16a	.	.	.
16dd	16f#	.	.	.
=58	=58	=58	=58	=58
16cc	4e	2r	16e	2r
16dd	.	.	16f#	.
16ee	.	.	16g	.
16cc	.	.	16e	.
16b	4r	.	16d	.
16cc	.	.	16e	.
16dd	.	.	16f#	.
16b	.	.	16d	.
=59	=59	=59	=59	=59
16a	2r	2r	16c	2r
16b	.	.	16d	.
16cc	.	.	16e	.
16a	.	.	16c	.
16g	.	.	16B	.
16a	.	.	16c	.
16b	.	.	16d	.
16g	.	.	16B	.
=60	=60	=60	=60	=60
8f#	8c	2r	8A	16A
.	.	.	.	16B
8r	8r	.	8r	16c
.	.	.	.	16A
8g	8B	.	8G	16G
.	.	.	.	16A
8r	8r	.	8r	16B
.	.	.	.	16G
=61	=61	=61	=61	=61
8a	8d	2r	8F#	16F#
.	.	.	.	16G
8r	8r	.	8r	16A
.	.	.	.	16F#
8b	8g	.	8E	16E
.	.	.	.	16F#
8r	8r	.	8r	16G
.	.	.	.	16E
=62	=62	=62	=62	=62
8cc	8a	2r	8D	16D
.	.	.	.	16E
8ccc	8a	.	8d	16F#
.	.	.	.	16D
8bb	8g	.	8d	8G
8bb	8g	.	8d	8G
=63	=63	=63	=63	=63
16aa	8ee	2r	8c	8C
16bb	.	.	.	.
16ccc	8ee	.	8c	8C
16aa	.	.	.	.
16ff#	8cc	.	8A	8D
16gg	.	.	.	.
16aa	8cc	.	8A	8D
16ff#	.	.	.	.
=64	=64	=64	=64	=64
4gg	4b	2r	8d	8B
.	.	.	8B	8G
4r	4r	.	8d	8B
.	.	.	8B	8G
=65	=65	=65	=65	=65
8dd	8b	2r	2r	2r
8b	8g	.	.	.
8dd	8b	.	.	.
8b	8g	.	.	.
=66	=66	=66	=66	=66
2r	2r	2r	8b	8d
.	.	.	8g	8B
.	.	.	8b	8d
.	.	.	8g	8B
=67	=67	=67	=67	=67
8ddd	8bb	2r	2r	2r
8bb	8gg	.	.	.
8ddd	8bb	.	.	.
8bb	8gg	.	.	.
=68	=68	=68	=68	=68
2r	2r	2r	8f	8d
.	.	.	8d	8B
.	.	.	8f	8d
.	.	.	8d	8B
=69	=69	=69	=69	=69
8gg	8ff	2r	2r	2r
8b	8dd	.	.	.
8gg	8ff	.	.	.
8b	8dd	.	.	.
=70	=70	=70	=70	=70
4r	4r	2r	8f	8d
.	.	.	8d	8B
8gg	8ff	.	4r	4r
8b	8dd	.	.	.
=71	=71	=71	=71	=71
4r	4r	2r	8f	8d
.	.	.	8d	8B
8gg	8ff	.	4r	4r
8b	8dd	.	.	.
=72	=72	=72	=72	=72
2r	2r	2r	2r	2r
=73	=73	=73	=73	=73
8gg	8cc 8e	2r	8G 8e	8C
8ee	8r	.	8r	8r
8gg	8e 8cc	.	8e 8G	8C
8ee	8r	.	8r	8r
=74	=74	=74	=74	=74
16gg	4e 4cc	2r	4G 4e	4C
16ff	.	.	.	.
16ee	.	.	.	.
16ff	.	.	.	.
8gg	4r	.	4r	4r
8ee	.	.	.	.
=75	=75	=75	=75	=75
16gg	8cc 8e	2r	8G 8e	8C
16ff	.	.	.	.
16ee	8e 8cc	.	8G 8e	8C
16ff	.	.	.	.
16gg	8cc 8e	.	8e 8G	8C
16ff	.	.	.	.
16ee	8cc 8e	.	8G 8e	8C
16ff	.	.	.	.
=76	=76	=76	=76	=76
16gg	4cc 4e	2r	4G 4e	4C
16ff	.	.	.	.
16ee	.	.	.	.
16ff	.	.	.	.
8gg	4r	.	4r	4r
8ee	.	.	.	.
=77	=77	=77	=77	=77
8aa	8cc#	2r	8e	8AA
8aa	8cc#	.	8e	8AA
8gg	8cc#	.	8e	8AA
16ff	8cc#	.	8e	8AA
16gg	.	.	.	.
=78	=78	=78	=78	=78
8ff	8dd	2r	8A	8D
8ff	8dd	.	8A	8D
8gg	8b	.	8d	8GG
16ff	8b	.	8d	8GG
16gg	.	.	.	.
=79	=79	=79	=79	=79
8ee	8cc	2r	8G	8C
8ee	8cc	.	8G	8C
8ff	8a	.	8A	8FF
16ee	16g	.	8A	8FF
16dd	16f	.	.	.
=80	=80	=80	=80	=80
4cc	4e	2r	[4G	4GG
8b	8d	.	8G]	8GG
8r	8r	.	8r	8r
=81	=81	=81	=81	=81
8gg	8dd	2r	8b	2r
8r	8b	.	8g	.
8gg	8dd	.	8b	.
8r	8b	.	8g	.
=82	=82	=82	=82	=82
4gg	16dd	2r	16b	2r
.	16cc	.	16a	.
.	16b	.	16g	.
.	16cc	.	16a	.
4r	8dd	.	8b	.
.	8b	.	8g	.
=83	=83	=83	=83	=83
8gg	8ee	2r	8cc	2r
8r	8cc	.	8g	.
8gg	8ee	.	8cc	.
8r	8cc	.	8g	.
=84	=84	=84	=84	=84
4gg	16ee	2r	16cc	2r
.	16dd	.	16b	.
.	16cc	.	16a	.
.	16dd	.	16b	.
4r	8ee	.	8cc	.
.	8cc	.	8g	.
=85	=85	=85	=85	=85
8gg	16ff	2r	16dd	2r
.	16gg	.	16ee	.
8gg	16ff	.	16dd	.
.	16gg	.	16ee	.
8gg	16ee	.	16cc	.
.	16ff	.	16dd	.
8gg	16ee	.	16cc	.
.	16ff	.	16dd	.
=86	=86	=86	=86	=86
4gg	16dd	2r	16b	2r
.	16cc	.	16a	.
.	16b	.	16g	.
.	16a	.	16f	.
4r	16g	.	16e	.
.	16f	.	16d	.
.	16e	.	16c	.
.	16d	.	16B	.
=87	=87	=87	=87	=87
8ccc	8e	2r	8c	8B-
8r	8r	.	8r	8G
8ccc	8ee 8cc	.	8g	8B-
8r	8r	.	8r	8G
=88	=88	=88	=88	=88
4ccc	4ee 4cc	2r	4g	16B-
.	.	.	.	16A
.	.	.	.	16G
.	.	.	.	16A
4r	4r	.	4r	8B-
.	.	.	.	8G
=89	=89	=89	=89	=89
8ccc	8cc 8ee	2r	8g	16B-
.	.	.	.	16A
8ccc	8ee 8cc	.	8g	16G
.	.	.	.	16A
8ccc	8ee 8cc	.	8g	16B-
.	.	.	.	16A
8ccc	8ee 8cc	.	8g	16G
.	.	.	.	16A
=90	=90	=90	=90	=90
4ccc	4ee 4cc	2r	4g	16B-
.	.	.	.	16A
.	.	.	.	16G
.	.	.	.	16A
4r	4r	.	4r	8B-
.	.	.	.	8G
=91	=91	=91	=91	=91
16aa	[2cc	2r	2c	8F
16bb	.	.	.	.
16ccc	.	.	.	8F
16aa	.	.	.	.
8gg	.	.	.	8E
8gg	.	.	.	8E
=92	=92	=92	=92	=92
16ff	8cc]	2r	8f	8D
16gg	.	.	.	.
16aa	8b	.	8f	8D
16ff	.	.	.	.
8ee	8cc	.	8g	8C
8ee	8cc	.	8g	8C
=93	=93	=93	=93	=93
16dd	8a	2r	8a	8F
16ee	.	.	.	.
16ff	8a	.	8a	8F
16dd	.	.	.	.
16b	16d	.	8f	8G
16cc	16e	.	.	.
16dd	16f	.	8f	8G
16b	16d	.	.	.
=94	=94	=94	=94	=94
4.cc	4.e-	2r	[2g	4C
.	.	.	.	4r
8b	8f	.	.	.
=95	=95	=95	=95	=95
8cc	8e-	2r	2g_	2r
8b	8d	.	.	.
8cc	8e-	.	.	.
8dd	8d	.	.	.
=96	=96	=96	=96	=96
16ee-	8c	2r	2g_	4C
16ff	.	.	.	.
16ee-	8d	.	.	.
16dd	.	.	.	.
8cc	8e-	.	.	4r
8dd	8d	.	.	.
=97	=97	=97	=97	=97
16ee-	8c	2r	2g]	4C
16ff	.	.	.	.
16ee-	8d	.	.	.
16dd	.	.	.	.
8cc	8e-	.	.	4r
8ee-	8cc	.	.	.
=98	=98	=98	=98	=98
4.gg	4.b-	2r	[2d	4GG
.	.	.	.	4r
8ff#	8a	.	.	.
=99	=99	=99	=99	=99
8gg	8b-	2r	2d_	2r
8ff#	8a	.	.	.
8gg	8b-	.	.	.
8aa	8a	.	.	.
=100	=100	=100	=100	=100
16bb-	8g	2r	2d_	4GG
16ccc	.	.	.	.
16bb-	8a	.	.	.
16aa	.	.	.	.
8gg	8b-	.	.	4r
8aa	8a	.	.	.
=101	=101	=101	=101	=101
16bb-	8g	2r	2d]	4GG
16ccc	.	.	.	.
16bb-	8a	.	.	.
16aa	.	.	.	.
8gg	8b-	.	.	4r
8gg	8b-	.	.	.
=102	=102	=102	=102	=102
[2aa-	[2a-	2r	[2e-	8C
.	.	.	.	8C
.	.	.	.	8C
.	.	.	.	8C
=103	=103	=103	=103	=103
8aa-]	2a-]	2r	2e-]	8C
8aa-	.	.	.	8C
8bb-	.	.	.	8C
8ccc	.	.	.	8C
=104	=104	=104	=104	=104
8ccc	[2f	2r	2a-	8D
8bb-	.	.	.	8D
8fff	.	.	.	8D
8eee-	.	.	.	8D
=105	=105	=105	=105	=105
8ddd	2f_	2r	2b-	8D
8ccc	.	.	.	8D
8bb-	.	.	.	8D
8aa-	.	.	.	8D
=106	=106	=106	=106	=106
8aa-	8f]	2r	8B-	8E-
8gg	8e-	.	8B-	8E-
8aa-	8cc	.	8A-	8AA-
8ff	8a-	.	8A-	8AA-
=107	=107	=107	=107	=107
8ff	8a-	2r	8B-	8BB-
8ee-	8g	.	8B-	8BB-
8ee-	8g	.	8B-	8BB-
8dd	8f	.	8B-	8BB-
=108	=108	=108	=108	=108
[2ee-	4e-	2r	8b-	8G
.	.	.	8g	8E-
.	4r	.	8b-	8G
.	.	.	8g	8E-
=109	=109	=109	=109	=109
2ee-]	2r	2r	16b-	16G
.	.	.	16a-	16F
.	.	.	16g	16E-
.	.	.	16a-	16F
.	.	.	8b-	8G
.	.	.	8g	8E-
=110	=110	=110	=110	=110
[2ee	8b-	2r	8g	2C
.	8g	.	8e	.
.	8b-	.	8g	.
.	8g	.	8e	.
=111	=111	=111	=111	=111
2ee]	16b-	2r	16g	2C
.	16a-	.	16f	.
.	16g	.	16e	.
.	16a-	.	16f	.
.	8b-	.	8g	.
.	8g	.	8e	.
=112	=112	=112	=112	=112
[2ff	4f	2r	8cc	8A-
.	.	.	8a-	8F
.	4r	.	8cc	8A-
.	.	.	8a-	8F
=113	=113	=113	=113	=113
2ff]	2r	2r	16cc	16A-
.	.	.	16b-	16G
.	.	.	16a-	16F
.	.	.	16b-	16G
.	.	.	8cc	8A-
.	.	.	8a-	8F
=114	=114	=114	=114	=114
[2ff#	8cc	2r	8a	2D
.	8a	.	8f#	.
.	8cc	.	8a	.
.	8a	.	8f#	.
=115	=115	=115	=115	=115
2ff#]	16cc	2r	16a	2D
.	16b	.	16g	.
.	16a	.	16f#	.
.	16b	.	16g	.
.	8cc	.	8a	.
.	8a	.	8f#	.
=116	=116	=116	=116	=116
16gg	4b	2r	4g	4G
16aa-	.	.	.	.
16gg	.	.	.	.
16ff#	.	.	.	.
8gg	8ee-	.	8cc	4r
8gg	8ee-	.	8cc	.
=117	=117	=117	=117	=117
16gg	8dd	2r	8b	4r
16aa-	.	.	.	.
16gg	8dd	.	8b	.
16ff#	.	.	.	.
8gg	4r	.	8e-	8C
8gg	.	.	8e-	8C
=118	=118	=118	=118	=118
16gg	4r	2r	8d	8BB
16aa-	.	.	.	.
16gg	.	.	8d	8BB
16ff#	.	.	.	.
8gg	8ee-	.	8cc	4r
8gg	8ee-	.	8cc	.
=119	=119	=119	=119	=119
16gg	8dd	2r	8b	4r
16aa-	.	.	.	.
16gg	8dd	.	8b	.
16ff#	.	.	.	.
8gg	4r	.	8e-	8C
8gg	.	.	8e-	8C
=120	=120	=120	=120	=120
16gg	2r	2r	8d	8BB
16aa-	.	.	.	.
16gg	.	.	8d	8BB
16ff#	.	.	.	.
8gg	.	.	4r	4r
8gg	.	.	.	.
=121	=121	=121	=121	=121
8gg	2r	2r	2r	2r
8gg	.	.	.	.
8gg	.	.	.	.
8gg	.	.	.	.
=122	=122	=122	=122	=122
8gg	2r	2r	2r	2r
8ff#	.	.	.	.
8gg	.	.	.	.
8ff#	.	.	.	.
=123	=123	=123	=123	=123
8gg	2r	2r	2r	2r
8ff#	.	.	.	.
8gg	.	.	.	.
8ff#	.	.	.	.
=124	=124	=124	=124	=124
8gg	2r	2r	2r	2r
8ff	.	.	.	.
8gg	.	.	.	.
8ff	.	.	.	.
=125	=125	=125	=125	=125
8gg	2r	2r	2r	2r
8ff	.	.	.	.
8gg	.	.	.	.
8ff	.	.	.	.
=126	=126	=126	=126	=126
8gg	8ee	2r	8e	8c
8ee	8r	.	8r	8r
8gg	8ee	.	8e	8c
8ee	8r	.	8r	8r
=127	=127	=127	=127	=127
16gg	4ee	2r	4e	4c
16ff	.	.	.	.
16ee	.	.	.	.
16ff	.	.	.	.
8gg	4r	.	4r	4r
8ee	.	.	.	.
=128	=128	=128	=128	=128
16gg	8cc 8e	2r	8e 8G	8c
16ff	.	.	.	.
16ee	8e 8cc	.	8e 8G	8c
16ff	.	.	.	.
16gg	8cc 8e	.	8e 8G	8c
16ff	.	.	.	.
16ee	8e 8cc	.	8e 8G	8c
16ff	.	.	.	.
=129	=129	=129	=129	=129
16gg	4e 4cc	2r	4G 4e	4c
16ff	.	.	.	.
16ee	.	.	.	.
16ff	.	.	.	.
8gg	4r	.	4r	4r
8ee	.	.	.	.
=130	=130	=130	=130	=130
8aa	8cc#	2r	8e	8A
8aa	8cc#	.	8e	8A
8gg	8cc#	.	8e	8A
16ff	8cc#	.	8e	8A
16gg	.	.	.	.
=131	=131	=131	=131	=131
8ff	8dd	2r	8d	8d
8ff	8dd	.	8d	8d
8gg	8b	.	8d	8G
16ff	8b	.	8d	8G
16gg	.	.	.	.
=132	=132	=132	=132	=132
8ee	8cc	2r	8c	8c
8ee	8cc	.	8c	8c
8ff	8a	.	8F	8F
16ee	16g	.	8F	8F
16dd	16f	.	.	.
=133	=133	=133	=133	=133
4cc	4e	2r	4G	4G
8b	8d	.	4r	8GG
8r	8r	.	.	8r
=134	=134	=134	=134	=134
8gg	8dd	2r	8b	2r
8r	8b	.	8g	.
8gg	8dd	.	8b	.
8r	8b	.	8g	.
=135	=135	=135	=135	=135
4gg	16dd	2r	16b	2r
.	16cc	.	16a	.
.	16b	.	16g	.
.	16cc	.	16a	.
4r	8dd	.	8b	.
.	8b	.	8g	.
=136	=136	=136	=136	=136
8gg	8ee	2r	8cc	2r
8r	8cc	.	8g	.
8gg	8ee	.	8cc	.
8r	8cc	.	8g	.
=137	=137	=137	=137	=137
4gg	16ee	2r	16cc	2r
.	16dd	.	16b	.
.	16cc	.	16a	.
.	16dd	.	16b	.
4r	8ee	.	8cc	.
.	8cc	.	8g	.
=138	=138	=138	=138	=138
8gg	16ff	2r	16dd	2r
.	16gg	.	16ee	.
8gg	16ff	.	16dd	.
.	16gg	.	16ee	.
8gg	16ee	.	16cc	.
.	16ff	.	16dd	.
8gg	16ee	.	16cc	.
.	16ff	.	16dd	.
=139	=139	=139	=139	=139
4gg	16dd	2r	16b	2r
.	16cc	.	16a	.
.	16b	.	16g	.
.	16a	.	16f	.
4r	16g	.	16e	.
.	16f	.	16d	.
.	16e	.	16c	.
.	16d	.	16B	.
=140	=140	=140	=140	=140
8ccc	8e	2r	8c	8B-
8r	8r	.	8r	8G
8ccc	8ee 8cc	.	8g	8B-
8r	8r	.	8r	8G
=141	=141	=141	=141	=141
4ccc	4ee 4cc	2r	4g	16B-
.	.	.	.	16A
.	.	.	.	16G
.	.	.	.	16A
4r	4r	.	4r	8B-
.	.	.	.	8G
=142	=142	=142	=142	=142
8ccc	8ee 8cc	2r	8g	16B-
.	.	.	.	16A
8ccc	8ee 8cc	.	8g	16G
.	.	.	.	16A
8ccc	8ee 8cc	.	8g	16B-
.	.	.	.	16A
8ccc	8ee 8cc	.	8g	16G
.	.	.	.	16A
=143	=143	=143	=143	=143
4ccc	4ee 4cc	2r	4g	16B-
.	.	.	.	16A
.	.	.	.	16G
.	.	.	.	16A
4r	4r	.	4r	8B-
.	.	.	.	8G
=144	=144	=144	=144	=144
16aa	[2cc	2r	2c	8F
16bb	.	.	.	.
16ccc	.	.	.	8F
16aa	.	.	.	.
8gg	.	.	.	8E
8gg	.	.	.	8E
=145	=145	=145	=145	=145
16ff	8cc]	2r	8f	8D
16gg	.	.	.	.
16aa	8b	.	8f	8D
16ff	.	.	.	.
8ee	8cc	.	8g	8C
8ee	8cc	.	8g	8C
=146	=146	=146	=146	=146
16dd	8a	2r	8a	8F
16ee	.	.	.	.
16ff	8a	.	8a	8F
16dd	.	.	.	.
16b	16d	.	8f	8G
16cc	16e	.	.	.
16dd	16f	.	8f	8G
16b	16d	.	.	.
=147	=147	=147	=147	=147
4cc	4e	2r	4e	4C
4r	4r	.	4r	4r
=148	=148	=148	=148	=148
8gg	8ee	2r	4r	4r
8ee	8cc	.	.	.
4r	4r	.	8g	8E
.	.	.	8e	8C
=149	=149	=149	=149	=149
8ee	8cc	2r	4r	4r
8gg	8ee	.	.	.
4r	4r	.	8e	8C
.	.	.	8g	8E
=150	=150	=150	=150	=150
16gg	16ee	2r	2r	2r
16ff	16dd	.	.	.
16ee	16cc	.	.	.
16ff	16dd	.	.	.
8gg	8ee	.	.	.
8ee	8cc	.	.	.
=151	=151	=151	=151	=151
2r	2r	2r	16g	16E
.	.	.	16f	16D
.	.	.	16e	16C
.	.	.	16f	16D
.	.	.	8g	8E
.	.	.	8e	8C
=152	=152	=152	=152	=152
16ee	16cc	2r	2r	2r
16ff	16dd	.	.	.
16gg	16ee	.	.	.
16ff	16dd	.	.	.
8ee	8cc	.	.	.
8gg	8ee	.	.	.
=153	=153	=153	=153	=153
2r	2r	2r	16e	16C
.	.	.	16f	16D
.	.	.	16g	16E
.	.	.	16f	16D
.	.	.	8e	8C
.	.	.	8g	8E
=154	=154	=154	=154	=154
16gg	16ee	2r	2r	2r
16ff	16dd	.	.	.
16ee	16cc	.	.	.
16ff	16dd	.	.	.
16gg	16ee	.	.	.
16ff	16dd	.	.	.
16ee	16cc	.	.	.
16ff	16dd	.	.	.
=155	=155	=155	=155	=155
16gg	16ee	2r	16e	16C
16ff	16dd	.	16f	16D
16ee	16cc	.	16g	16E
16ff	16dd	.	16f	16D
16gg	16ee	.	16e	16C
16ff	16dd	.	16f	16D
16ee	16cc	.	16g	16E
16ff	16dd	.	16f	16D
=156	=156	=156	=156	=156
16gg	16ee	2r	16e	16C
16ff	16dd	.	16f	16D
16ee	16cc	.	16g	16E
16ff	16dd	.	16f	16D
16gg	16ee	.	16e	8C
16ff	16dd	.	16f	.
16gg	16ee	.	16g	8C
16aa	16ff	.	16f	.
=157	=157	=157	=157	=157
4bb-	4gg	2r	4e	4C
4r	4r	.	4r	4r
=158	=158	=158	=158	=158
[2aa	8a	2r	8c	8F
.	8cc	.	8c	8A
.	8a	.	8c	8F
.	8cc	.	8c	8A
=159	=159	=159	=159	=159
8aa]	4a	2r	4c	4F
16bb	.	.	.	.
16ccc	.	.	.	.
16bb	4r	.	4r	4r
16aa	.	.	.	.
16gg	.	.	.	.
16ff	.	.	.	.
=160	=160	=160	=160	=160
8ee	8cc	2r	8e	8G
16ff#	8cc	.	8e	8G
16gg	.	.	.	.
16ff#	8cc	.	8e	8G
16gg	.	.	.	.
16ff#	8cc	.	8e	8G
16gg	.	.	.	.
=161	=161	=161	=161	=161
8gg	8cc	2r	8e	8G
16aa	8cc	.	8e	8G
16gg	.	.	.	.
16ff	8cc	.	8e	8G
16ee	.	.	.	.
16dd	8cc	.	8e	8G
16cc	.	.	.	.
=162	=162	=162	=162	=162
8g	8cc	2r	8d	8G
8r	8cc	.	8d	8G
8dd 8bb	8b	.	8d	8G
8r	8dd	.	8d	8G
=163	=163	=163	=163	=163
4ccc 4ee	4cc	2r	4c	4C
4r	4r	.	4r	4r
=164	=164	=164	=164	=164
8f	8d	2r	8G	4G
8d	8B	.	8G	.
8f	8d	.	8G	4r
8d	8B	.	8G	.
=165	=165	=165	=165	=165
16e	16c	2r	8G	4C
16f	16d	.	.	.
16g	16e	.	8G	.
16f	16d	.	.	.
8e	8c	.	8G	4r
8g	8c	.	8G	.
=166	=166	=166	=166	=166
8f	8d	2r	8G	4G
8d	8B	.	8G	.
8f	8d	.	8G	4r
8d	8B	.	8G	.
=167	=167	=167	=167	=167
8e	4c	2r	4G	4C
8gg	.	.	.	.
8gg	4r	.	4r	4r
8gg	.	.	.	.
=168	=168	=168	=168	=168
8gg	8ff	2r	8dd	8g
8gg	8dd	.	8b	8r
8gg	8ff	.	8dd	8g
8gg	8dd	.	8b	8r
=169	=169	=169	=169	=169
8gg	16ee	2r	16cc	4c
.	16ff	.	16dd	.
8gg	16gg	.	16ee	.
.	16ff	.	16dd	.
8gg	8ee	.	8cc	4r
8gg	8gg	.	8ee	.
=170	=170	=170	=170	=170
8gg	8ff	2r	8dd	8g
8gg	8dd	.	8b	8r
8gg	8ff	.	8dd	8g
8gg	8dd	.	8b	8r
=171	=171	=171	=171	=171
4gg	4ee	2r	4cc	4c
4r	4r	.	4r	4r
==	==	==	==	==
*-	*-	*-	*-	*-
!!!RWG1: This file contains only pitch and duration data.
!!!RWG2: Transposing instruments are not transposed.
!!!RWG3: Spines may have incompatible meters.
!!!RWG4: Durations of rests and tied notes may be interpreted.
!!!RWG: Key is interpreted using the Humdrum key tool.
!!!GTL: 6 Quators ("Jungfernquartette")
!!!OPT: The Bird
!!!AFT: stage1
!!!END: 1997/04/15
!!format changes:
!!content changes:
!!public access: complete
!!!KEY: 633457932
!!!EMD: Converted from MuseData to Humdrum Dec 16, 2000, by Andreas Kornstaedt using muse2kern.
